X:4402
L:1/8
Q:3/8=110
M:6/8
K:F
"^A""F" Acc"C" Gcc |"Dm" Fcc"Am" Ecc |"Bb" Ddc"Gm" BAG |"D7" ^FGA"Gm" G3 |"F" Acc"C" Gcc | 
"Dm" Fcc"Am" Ecc |"Dm" c=BA"Ddim" ^GAB |"E7" =Bcd"Am" e3 |"F" Acc"C" Gcc |"Dm" Fcc"Am" Ecc | 
"G" =BAG"C" GFE |"G7" DC=B,"C" C3 ||"^B""Dm" D2 E FED |"C" E2 F GFE |"Bb" FBA"Gm" Gdc | 
"G7" =BAB"C" c3 |"Bb" d2 B GAB |"F" c2 A FGA |"Eb" B2 G _EFG |"D7" ^F2 G A3 |"Gm" GAB Bcd | 
"Ab" _ABc cd_e |"G" d=BG GAB |"C" c3"C7" d3 ||"^C""F" cAA AFF |"F" FCC C2 c |"F" cAA AFF | 
"C7" G3- G2 B |"C7" BGG GEE |"C7" ECC"A7" ^C2 E |"Dm" DFF"A7" EGG |"Dm" FED"Gm" B3 | 
"F" AGF"Gm" GAB |"Am" ABc"Bb" Bcd |"F" cBA"C7" GFE |"F" F3- F3 |]

